X:1
T:Are You Ready?
T:Are You Ready?
T:Edmund Simon Lorenz
T:J. Wenhaupt Slaughenhaupt, 1878
T:Public Domain Courtesy of the Cyber Hymnal™
T:Public Domain Courtesy of the Cyber Hymnal™
C:Edmund Simon Lorenz
Z:Public Domain
Z:Courtesy of the Cyber Hymnal™
%%score ( 1 2 ) ( 3 4 )
L:1/8
Q:1/4=88
M:4/4
K:Eb
V:1 treble 
V:2 treble 
V:3 bass 
V:4 bass 
V:1
 [EG][FA] | [GB][GB][GB][Ac] [GB][FA][EG][GB] | [Ac][ce][Bd][Ac] [GB]2 [EG][FA] | %3
w: 1.~Soon the|even- ing sha- dows fall- ing Close the|day of mor- tal life; Soon the|
w: 2.~Soon the|aw- ful trump- et sound- ing Calls thee|to the judg- ment throne; Now pre-|
w: 3.~Oh, how|fa- tal ’tis to lin- ger! Art thou|rea- dy— rea- dy now? Rea- dy,|
w: 4.~Price- less|love and free sal- va- tion Free- ly|still are of- fered thee; Yield no|
 [GB][GB][GB][Ac] [GB][EG][DF]E | [EG][DF] [DF]>[EG] [DF]2 ||"^Refrain" G>F | E<(G G4) e>d | %7
w: hand of death ap- pall- ing Draws thee|from its wea- ry strife.|||
w: pare, for love a- bound- ing Yet has|left thee not a- lone.|Are you|rea- dy? * Are you|
w: should death’s i- cy fin- ger Lay its|chill up- on thy brow?|||
w: long- er to temp- ta- tion, But from|sin and sor- row flee.|||
 c<(e e4) [Ad][Ac] | [GB]2 [EG]2 [DF]E [GB]>[EG] | [DF]6 G>F | E<(G G4) e>d | c<(e e4) [Ad][Ac] | %12
w: |||||
w: rea- dy? * ’Tis the|Spir- it call- ing, why de-|lay? Are you|rea- dy? * Are you|rea- dy? * Do not|
w: |||||
w: |||||
 [GB]2 [EG]2 [DF]E [EG]>[DF] | E6 |] %14
w: ||
w: ling- er long- er, come to-|day.|
w: ||
w: ||
V:2
 x2 | x8 | x8 | x7 E | x6 || x2 | x2 (E>EE<E) x2 | x2 (A>AA<A) x2 | x5 E x2 | x8 | x2 (E>EE<E) x2 | %11
 x2 (A>AA<A) x2 | x5 E x2 | E6 |] %14
V:3
 [E,B,][E,B,] | [E,E][E,E][E,E][E,E] [E,E][E,B,][E,B,][E,E] | %2
w: ~ ~|~ ~ ~ ~ ~ ~ ~ ~|
 [A,E][A,E][A,E][A,E] [E,E]2 [E,B,][E,B,] | [E,E][E,E][E,E][E,E] [E,E][E,B,][E,A,][E,G,] | %4
w: ~ ~ ~ ~ ~ ~ ~|~ ~ ~ ~ ~ ~ ~ ~|
 [B,,B,][B,,B,] [B,,B,]>[B,,B,] [B,,B,]2 || B,>A, | G,<B, B,4 C>B, | A,<C C4 [A,D][A,E] | %8
w: ~ ~ ~ ~ ~|~ ~|~ ~ Are you rea-|dy? ~ ~ ~ ~|
 [E,E]2 [E,B,]2 [E,A,][E,G,] [E,E]>[E,B,] | [B,,B,]6 B,>A, | G,<B, B,4 C>B, | A,<C C4 [A,D][A,E] | %12
w: Are you rea- dy? ~ ~|~ ~ ~|~ ~ ~ ~ ~|~ ~ ~ Are you|
 [B,E]2 B,2 [B,,A,][B,,G,] [B,,B,]>[B,,A,] | [E,G,]6 |] %14
w: rea- dy? ~ ~ ~ ~|Are|
V:4
 x2 | x8 | x8 | x8 | x6 || x2 | x2 E,>E, E,<E, x2 | x2 A,>A, A,<A, x2 | x8 | x8 | %10
 x2 E,>E, E,<E, x2 | x2 A,>A, A,<A, x2 | x2 B,2 x4 | x6 |] %14

